svgs/thin/square-envelope.svg

<svg xmlns="http://www.w3.org/2000/svg" viewBox="0 0 448 512"><!-- Font Awesome Pro 6.0.0-alpha2 by @fontawesome - https://fontawesome.com License - https://fontawesome.com/license (Commercial License) --><path d="M384 32H64C28.652 32 0 60.656 0 96V416C0 451.344 28.652 480 64 480H384C419.344 480 448 451.344 448 416V96C448 60.656 419.344 32 384 32ZM432 416C432 442.469 410.469 464 384 464H64C37.531 464 16 442.469 16 416V96C16 69.531 37.531 48 64 48H384C410.469 48 432 69.531 432 96V416ZM352 144H96C78.328 144 64 158.326 64 176V336C64 353.674 78.328 368 96 368H352C369.674 368 384 353.674 384 336V176C384 158.326 369.674 144 352 144ZM368 336C368 344.822 360.822 352 352 352H96C87.178 352 80 344.822 80 336V216.264L203.406 290.281C209.766 294.125 216.875 296.031 224 296.031S238.234 294.125 244.578 290.313L368 216.266V336ZM368 197.584L236.344 276.594C228.75 281.156 219.266 281.188 211.641 276.562L80 197.584V176C80 167.178 87.178 160 96 160H352C360.822 160 368 167.178 368 176V197.584Z"/></svg>

<svg xmlns="http://www.w3.org/2000/svg" viewBox="0 0 448 512"><!--! Font Awesome Pro 6.3.0 by @fontawesome - https://fontawesome.com License - https://fontawesome.com/license (Commercial License) Copyright 2023 Fonticons, Inc. --><path d="M384 32H64C28.65 32 0 60.66 0 96v320c0 35.34 28.65 64 64 64h320c35.34 0 64-28.66 64-64V96C448 60.66 419.3 32 384 32zM432 416c0 26.47-21.53 48-48 48H64c-26.47 0-48-21.53-48-48V96c0-26.47 21.53-48 48-48h320c26.47 0 48 21.53 48 48V416zM352 144H96c-17.67 0-32 14.33-32 32v160c0 17.67 14.33 32 32 32h256c17.67 0 32-14.33 32-32v-160C384 158.3 369.7 144 352 144zM368 336c0 8.822-7.178 16-16 16H96c-8.822 0-16-7.178-16-16V216.3l123.4 74.02C209.8 294.1 216.9 296 224 296s14.23-1.906 20.58-5.719L368 216.3V336zM368 197.6l-131.7 79.01c-7.594 4.562-17.08 4.594-24.7-.0313L80 197.6V176C80 167.2 87.18 160 96 160h256c8.822 0 16 7.178 16 16V197.6z"/></svg>
